**kern
*staff1
!!pagebreak:original
*I"P1
=1-
*clefG2
*k[b-e-a-]
*met(c|)
*M2/2
4ff\
4r
4ff\
4r
=2
4ff\
4dd\
2r
=3
4gg\
4r
4cc\
4r
=4
4ff\
4dd\
2r
=5
4cc\
8ccc\L
8ccc\J
4ccc\
4ccc\
=6
4ccc\
8gg\L
8ccc\J
4fff\
4eeen\
=7
4ddd\
4aan\
4dd\
4ccc#\
=8
4cccn\
4gg\
4cc\
=
*-
